icons/svg/seamark/buoy_white_pillar.svg

<?xml version="1.0" encoding="UTF-8" standalone="no"?>
<svg
   xmlns:dc="http://purl.org/dc/elements/1.1/"
   xmlns:cc="http://creativecommons.org/ns#"
   xmlns:rdf="http://www.w3.org/1999/02/22-rdf-syntax-ns#"
   xmlns:svg="http://www.w3.org/2000/svg"
   xmlns="http://www.w3.org/2000/svg"
   xmlns:sodipodi="http://sodipodi.sourceforge.net/DTD/sodipodi-0.dtd"
   xmlns:inkscape="http://www.inkscape.org/namespaces/inkscape"
   width="580"
   height="580"
   id="svg2"
   version="1.1"
   inkscape:version="0.48.4 r9939"
   sodipodi:docname="buoy_white_pillar.svg">
  <defs
     id="defs13">
    <inkscape:path-effect
       effect="gears"
       id="path-effect3774"
       is_visible="true"
       teeth="6"
       phi="-1.2" />
    <inkscape:path-effect
       effect="bend_path"
       id="path-effect3772"
       is_visible="false"
       bendpath="m 95.790098,316.51174 c 144.429032,-206.42506 223.313032,-11.7428 339.548092,0"
       prop_scale="1.19"
       scale_y_rel="false"
       vertical="false"
       bendpath-nodetypes="cc" />
  </defs>
  <sodipodi:namedview
     pagecolor="#ffffff"
     bordercolor="#666666"
     borderopacity="1"
     objecttolerance="10"
     gridtolerance="10"
     guidetolerance="10"
     inkscape:pageopacity="0"
     inkscape:pageshadow="2"
     inkscape:window-width="1920"
     inkscape:window-height="1004"
     id="namedview11"
     showgrid="false"
     inkscape:zoom="0.40689655"
     inkscape:cx="-354.72684"
     inkscape:cy="427.14141"
     inkscape:window-x="1680"
     inkscape:window-y="0"
     inkscape:window-maximized="1"
     inkscape:current-layer="svg2" />
  <metadata
     id="metadata2975">image/svg+xmlen<rdf:RDF>
  <cc:Work
     rdf:about="">
    <dc:format>image/svg+xml</dc:format>
    <dc:type
       rdf:resource="http://purl.org/dc/dcmitype/StillImage" />
    <dc:title />
  </cc:Work>
</rdf:RDF>
</metadata>
  <path
     sodipodi:type="inkscape:offset"
     inkscape:radius="19.292765"
     inkscape:original="M 333.21875 159.5 C 302.24195 239.29105 270.9488 314.61304 239.5 394.21875 L 231.28125 404.8125 L 231.21875 404.875 L 155.09375 504.125 L 99.78125 504.125 L 99.78125 529.125 L 241.0625 529.125 C 242.8865 535.11987 245.94205 540.56476 249.96875 545.1875 C 250.14855 545.40175 250.34595 545.60166 250.53125 545.8125 C 250.56615 545.8511 250.59 545.8991 250.625 545.9375 C 251.084 546.45533 251.5692 546.94085 252.0625 547.4375 C 252.5597 547.9382 253.06045 548.42778 253.59375 548.90625 C 254.11005 549.36951 254.6364 549.83947 255.1875 550.28125 C 255.3937 550.44658 255.6013 550.61899 255.8125 550.78125 C 256.2316 551.11511 256.66245 551.43128 257.09375 551.75 C 263.04665 556.14945 270.1331 559.10254 277.8125 560.03125 C 279.6655 560.39628 281.5982 560.71105 283.625 560.96875 C 307.0607 559.5663 319.61965 547.66678 325.28125 529.125 L 455.15625 529.125 L 455.15625 504.125 L 387.40625 504.125 L 369.40625 423.6875 L 369.34375 423.4375 C 369.51785 420.26873 369.6994 417.15387 369.875 414 L 384.625 171.5 L 368.25 167.6875 L 333.21875 159.5 z "
     style="opacity:0.42608696000000001;color:#000000;fill:#8d8d8d;fill-opacity:1;fill-rule:nonzero;stroke:#a35151;stroke-width:0;stroke-linecap:round;stroke-linejoin:miter;stroke-miterlimit:4;stroke-opacity:1;stroke-dasharray:none;stroke-dashoffset:0;marker:none;visibility:visible;display:inline;overflow:visible;enable-background:accumulate"
     id="path4001"
     d="m 333.78125,140.21875 a 19.294694,19.294694 0 0 0 -18.5625,12.3125 c -30.5322,78.64583 -61.45062,153.17263 -92.625,232 l -6.1875,7.96875 a 19.294694,19.294694 0 0 0 -0.125,0.15625 l -0.25,0.34375 a 19.294694,19.294694 0 0 0 -0.125,0.125 l -70.34375,91.71875 -45.78125,0 A 19.294694,19.294694 0 0 0 80.5,504.125 l 0,25 a 19.294694,19.294694 0 0 0 19.28125,19.28125 l 128.90625,0 c 1.91446,3.24435 4.05546,6.34906 6.5,9.1875 0.23561,0.28076 0.0681,0.10913 0.21875,0.28125 0.39331,0.44942 0.84762,0.94081 0.625,0.6875 a 19.294694,19.294694 0 0 0 0.15625,0.1875 c 0.0809,0.0913 0.10955,0.10104 0.1875,0.1875 0.85135,0.94434 1.57295,1.6638 2,2.09375 0.63019,0.63462 1.4095,1.41181 2.34375,2.25 0.54011,0.48462 1.3228,1.19397 2.40625,2.0625 0.0209,0.0168 0.35455,0.29234 0.65625,0.53125 0.12543,0.0999 0.16507,0.12809 0.28125,0.21875 0.63997,0.49939 1.22658,0.93926 1.5625,1.1875 l 0,-0.0312 c 8.15193,6.02463 17.90831,10.12937 28.46875,11.65625 l 0,0.0625 c 0.45284,0.0892 0.94689,0.13473 1.40625,0.21875 1.85896,0.34002 3.71937,0.65601 5.6875,0.90625 a 19.294694,19.294694 0 0 0 3.59375,0.125 C 308.41451,578.80448 327.152,565.80183 337.5,548.40625 l 117.65625,0 A 19.294694,19.294694 0 0 0 474.4375,529.125 l 0,-25 a 19.294694,19.294694 0 0 0 -19.28125,-19.28125 l -52.3125,0 L 388.75,421.8125 c 0.1242,-2.20386 0.2498,-4.40964 0.375,-6.65625 0.002,-0.0315 -0.002,-0.0622 0,-0.0937 l 14.75,-242.40625 A 19.294694,19.294694 0 0 0 389,152.71875 l -16.34375,-3.8125 -0.0312,0 -35,-8.1875 a 19.294694,19.294694 0 0 0 -3.84375,-0.5 z" />
  <path
     style="opacity:0.92800000000000005;color:#000000;fill:#fefefe;fill-opacity:1;fill-rule:nonzero;stroke:none;marker:none;visibility:visible;display:inline;overflow:visible;enable-background:accumulate;stroke-width:0"
     d="m 333.37805,159.4337 c -30.97684,79.79105 -62.26995,155.11228 -93.71876,234.71799 l -8.21875,10.59375 -0.0625,0.0625 -87.75,114.40625 96.34375,0.4375 c 2.85677,21.00574 11.85744,36.44127 42.43008,40.32839 27.07515,-1.62024 41.0194,-16.31386 45.19492,-40.01589 l 62.28125,0.28125 -20.375,-96.875 c 4.71865,-85.87361 9.9989,-166.06662 15.15625,-251.91463 z"
     id="path3822"
     inkscape:connector-curvature="0"
     sodipodi:nodetypes="cccccccccccc" />
  <path
     style="fill:none;stroke:#000000;stroke-width:25;stroke-linecap:butt;stroke-linejoin:miter;stroke-opacity:1;stroke-miterlimit:4;stroke-dasharray:none"
     d="m 99.923776,516.57012 355.381084,0"
     id="path3759"
     inkscape:connector-curvature="0" />
  <path
     sodipodi:type="arc"
     style="color:#000000;fill:#fefefe;fill-opacity:1;stroke:#000000;stroke-width:25;stroke-linecap:round;stroke-linejoin:round;stroke-miterlimit:10;stroke-opacity:1;stroke-dasharray:none;stroke-dashoffset:0;marker:none;visibility:visible;display:inline;overflow:visible;enable-background:accumulate"
     id="path3759-1"
     sodipodi:cx="210.27438"
     sodipodi:cy="76.036606"
     sodipodi:rx="40.838413"
     sodipodi:ry="40.838413"
     d="m 251.1128,76.036606 a 40.838413,40.838413 0 1 1 -81.67683,0 40.838413,40.838413 0 1 1 81.67683,0 z"
     transform="matrix(0.82289092,0,0,0.82289092,110.16458,453.8318)" />
  <path
     style="opacity:0.42608696;color:#000000;fill:#000000;fill-opacity:1;fill-rule:nonzero;stroke:#a35151;stroke-width:0;stroke-linecap:round;stroke-linejoin:miter;stroke-miterlimit:4;stroke-opacity:1;stroke-dashoffset:0;marker:none;visibility:visible;display:inline;overflow:visible;enable-background:accumulate"
     d="m 368.39266,167.64448 16.37157,3.79552 -15.30389,251.82117 17.34328,81.62677 -50.44073,-0.3762 -11.14154,-91.29302 z"
     id="rect3050-45"
     inkscape:connector-curvature="0"
     sodipodi:nodetypes="ccccccc" />
</svg>

<svg width="580" height="580" viewBox="0 0 580 580" fill="none" xmlns="http://www.w3.org/2000/svg">
<g clip-path="url(#clip0)">
<path opacity="0.426087" d="M333.781 140.219C329.794 140.101 325.868 141.221 322.544 143.426C319.22 145.631 316.661 148.812 315.219 152.531C284.687 231.177 253.768 305.704 222.594 384.531L216.406 392.5C216.364 392.552 216.323 392.604 216.281 392.656L216.031 393C215.989 393.042 215.948 393.083 215.906 393.125L145.562 484.844H99.7812C94.6686 484.847 89.7664 486.88 86.1513 490.495C82.5361 494.11 80.5036 499.013 80.5 504.125V529.125C80.5036 534.238 82.5361 539.14 86.1513 542.755C89.7664 546.37 94.6686 548.403 99.7812 548.406H228.688C230.602 551.651 232.743 554.755 235.188 557.594C235.423 557.875 235.256 557.703 235.406 557.875C235.8 558.325 236.254 558.816 236.031 558.563C236.083 558.626 236.135 558.688 236.188 558.75C236.268 558.841 236.297 558.851 236.375 558.938C237.226 559.882 237.948 560.601 238.375 561.031C239.005 561.666 239.785 562.443 240.719 563.281C241.259 563.766 242.042 564.475 243.125 565.344C243.146 565.361 243.48 565.636 243.781 565.875C243.907 565.975 243.946 566.003 244.062 566.094C244.702 566.593 245.289 567.033 245.625 567.281V567.25C253.777 573.275 263.533 577.38 274.094 578.906V578.969C274.547 579.058 275.041 579.104 275.5 579.188C277.359 579.528 279.219 579.844 281.188 580.094C282.379 580.247 283.582 580.289 284.781 580.219C308.415 578.805 327.152 565.802 337.5 548.406H455.156C460.269 548.403 465.171 546.37 468.786 542.755C472.401 539.14 474.434 534.238 474.438 529.125V504.125C474.434 499.013 472.401 494.11 468.786 490.495C465.171 486.88 460.269 484.847 455.156 484.844H402.844L388.75 421.813C388.874 419.609 389 417.403 389.125 415.156C389.127 415.125 389.123 415.094 389.125 415.063L403.875 172.656C404.146 168.113 402.801 163.619 400.079 159.971C397.357 156.322 393.433 153.754 389 152.719L372.656 148.906H372.625L337.625 140.719C336.364 140.424 335.076 140.256 333.781 140.219H333.781Z" fill="#8D8D8D"/>
<path opacity="0.928" d="M333.378 159.434C302.401 239.225 271.108 314.546 239.659 394.152L231.44 404.745L231.378 404.808L143.628 519.214L239.972 519.652C242.828 540.657 251.829 556.093 282.402 559.98C309.477 558.36 323.421 543.666 327.597 519.964L389.878 520.245L369.503 423.37C374.222 337.497 379.502 257.304 384.659 171.456L333.378 159.434Z" fill="#FEFEFE"/>
<path d="M99.9238 516.57H455.305" stroke="black" stroke-width="25"/>
<path d="M316.803 516.401C316.803 525.314 313.262 533.862 306.96 540.164C300.658 546.466 292.11 550.007 283.197 550.007C274.285 550.007 265.737 546.466 259.435 540.164C253.132 533.862 249.592 525.314 249.592 516.401C249.592 507.489 253.132 498.941 259.435 492.639C265.737 486.336 274.285 482.796 283.197 482.796C292.11 482.796 300.658 486.336 306.96 492.639C313.262 498.941 316.803 507.489 316.803 516.401V516.401Z" fill="#FEFEFE" stroke="black" stroke-width="20.5723" stroke-miterlimit="10" stroke-linecap="round" stroke-linejoin="round"/>
<path opacity="0.426087" d="M368.393 167.645L384.764 171.44L369.46 423.261L386.804 504.888L336.363 504.512L325.221 413.219L368.393 167.645Z" fill="black"/>
</g>
<defs>
<clipPath id="clip0">
<path d="M0 0H580V580H0V0Z" fill="white"/>
</clipPath>
</defs>
</svg>
